X: 1
T: B\aatsman D\"ack
O: Trad
W: Melody efter Ceylon Wallin
W: Harmony by John Chambers
R: hambo-polska
M: 3/4
L: 1/8
P: Melody
O: efter Ceylon Wallin
Z: 1999 John Chambers <jc@trillian.mit.edu>
K: G
|: "G"D>G B>G D>G | Bz B4 | c>B A>G F>G | "D7"Az A4 \
|| D>F A>F D>F |  cz c4 | d>c B>A G>A | "G"Bz B4 :|
|: "C"e2 e>d c>e | "G"d>d- d>c B>d | "D7"c>B A>G F>A | "G"G2 (3BGB d2 \
|| "C"e2 e>d c>e | "G"d>d- d>c B>d | "D7"c>B A>G F>A | "G"Gz G4 :|
P: Harmony
|: "G"B,>D G>D B,>D | Gz G4 | | A>G F>E D>E | "D7"Fz F4\
|| F>A c>A F>D | Az A4 | B>A G>F E>F | "G"Gz G4 :|
|: "C"c2 c>B A>c | "G"B>B- B>A G>B | "D7"A>G F>E D>C | "G"B,2 (3DB,D G>B \
|| "C"c2 c>B A>c | "G"B>B- B>A G>B | "D7"A>G F>E D>C | "G"B,z B,4 :|
